public/Img/Home/brand__fifth.svg

<svg width="166" height="40" viewBox="0 0 166 40" fill="none" xmlns="http://www.w3.org/2000/svg">
<g clip-path="url(#clip0_968_585)">
<path d="M47.6123 12.3745H51.786V29.7087H47.6123V12.3745ZM53.4502 23.1883C53.4502 18.8948 56.0506 16.3213 59.9512 16.3213C63.8519 16.3213 66.4523 18.8948 66.4523 23.1883C66.4523 27.4818 63.9429 30.082 59.9512 30.082C55.9596 30.082 53.4502 27.5752 53.4502 23.1883ZM62.3177 23.1883C62.3177 20.8282 61.4205 19.4415 59.9903 19.4415C58.56 19.4415 57.6759 20.7749 57.6759 23.1883C57.6759 25.6017 58.56 26.9218 59.9903 26.9218C61.4205 26.9218 62.3436 25.6018 62.3436 23.2016L62.3177 23.1883ZM68.1166 30.602H72.1472C72.3307 31.0471 72.6512 31.4182 73.0597 31.659C73.4681 31.8998 73.9423 31.9969 74.4097 31.9354C76.0089 31.9354 76.841 31.0554 76.841 29.7487V27.3486H76.854C76.5096 28.0959 75.9526 28.7188 75.2564 29.1353C74.5602 29.5518 73.7573 29.7423 72.9534 29.6819C69.8979 29.6819 67.8695 27.2952 67.8695 23.1883C67.8695 19.0814 69.8069 16.5213 73.0704 16.5213C73.8949 16.476 74.7127 16.6941 75.4113 17.1455C76.1099 17.5969 76.6548 18.2593 76.971 19.0414H76.854V16.628H80.9887V29.6153C80.9887 32.7488 78.2842 34.7089 74.3055 34.7089C70.691 34.6955 68.3766 33.0021 68.1426 30.6154L68.1166 30.602ZM76.854 23.1883C76.854 21.0949 75.9179 19.7748 74.4356 19.7748C72.9534 19.7748 72.0432 21.1082 72.0432 23.1883C72.0432 25.2684 72.9404 26.4952 74.4356 26.4952C75.9309 26.4952 76.854 25.3617 76.854 23.1883ZM82.64 23.1883C82.64 18.8948 85.2403 16.3213 89.1409 16.3213C93.0416 16.3213 95.642 18.8948 95.642 23.1883C95.642 27.4818 93.1196 30.082 89.1409 30.082C85.1624 30.082 82.6659 27.5752 82.6659 23.1883H82.64ZM91.5074 23.1883C91.5074 20.8282 90.5972 19.4415 89.18 19.4415C87.7627 19.4415 86.8656 20.7749 86.8656 23.1883C86.8656 25.6017 87.7497 26.9218 89.18 26.9218C90.6102 26.9218 91.5334 25.6018 91.5334 23.2016L91.5074 23.1883ZM97.3323 13.4678C97.3142 13.0318 97.4236 12.6002 97.6466 12.2286C97.8696 11.8569 98.196 11.5621 98.5836 11.3822C98.9713 11.2023 99.4025 11.1455 99.822 11.219C100.241 11.2926 100.63 11.4931 100.937 11.7949C101.245 12.0967 101.457 12.4858 101.547 12.9123C101.637 13.3389 101.6 13.7833 101.442 14.1883C101.284 14.5934 101.011 14.9406 100.658 15.1853C100.306 15.4299 99.8902 15.5609 99.4646 15.5613C99.1927 15.5683 98.9221 15.52 98.6685 15.419C98.4149 15.3179 98.1835 15.1662 97.9876 14.9728C97.7915 14.7792 97.635 14.5477 97.527 14.2917C97.419 14.0356 97.3616 13.7601 97.3583 13.4812L97.3323 13.4678ZM97.3323 16.6147H101.558V29.7619H97.3973L97.3323 16.6147ZM116.757 23.1883C116.757 27.4686 114.885 29.9487 111.7 29.9487C110.884 30.0002 110.073 29.7939 109.375 29.3575C108.677 28.9212 108.128 28.2758 107.799 27.5086H107.721V33.9889H103.547V16.6547H107.695V19.0014H107.773C108.09 18.2191 108.635 17.556 109.333 17.1027C110.031 16.6493 110.848 16.4277 111.673 16.468C114.95 16.4413 116.835 18.9081 116.835 23.2016L116.757 23.1883ZM112.506 23.1883C112.506 21.1082 111.556 19.7615 110.087 19.7615C108.618 19.7615 107.695 21.0949 107.682 23.1883C107.669 25.2817 108.618 26.6018 110.087 26.6018C111.556 26.6018 112.584 25.3617 112.584 23.2016L112.506 23.1883ZM123.882 16.3079C127.38 16.3079 129.552 18.0014 129.577 20.7215H125.768C125.768 19.7748 125.001 19.1881 123.857 19.1881C122.712 19.1881 122.166 19.6415 122.166 20.3215C122.166 21.0015 122.648 21.2149 123.61 21.4149L126.288 21.9749C128.889 22.535 129.929 23.6017 129.929 25.5885C129.929 28.2552 127.523 30.0687 123.948 30.0687C120.372 30.0687 118.044 28.3086 117.876 25.6285H121.919C122.036 26.6018 122.79 27.1752 124.013 27.1752C125.235 27.1752 125.807 26.7752 125.807 26.0684C125.807 25.3617 125.417 25.2417 124.415 25.0285L121.997 24.5083C119.488 23.9617 118.174 22.615 118.174 20.6015C118.253 17.988 120.437 16.3213 123.96 16.3213L123.882 16.3079ZM143.905 29.7487H139.862V27.2818H139.784C139.558 28.1047 139.065 28.8238 138.387 29.3207C137.709 29.8176 136.885 30.0626 136.053 30.0153C135.424 30.0363 134.799 29.9208 134.217 29.6763C133.635 29.4318 133.11 29.0639 132.677 28.5968C132.243 28.1296 131.911 27.5738 131.702 26.9657C131.492 26.3576 131.411 25.7111 131.463 25.0684V16.628H135.637V24.1483C135.637 25.6951 136.43 26.5352 137.73 26.5352C138.035 26.5328 138.336 26.4634 138.612 26.3315C138.889 26.1996 139.135 26.0085 139.334 25.7709C139.531 25.5332 139.678 25.2548 139.763 24.9541C139.847 24.6535 139.867 24.3378 139.823 24.0283V16.628H143.984L143.905 29.7487ZM145.921 16.6147H149.978V19.1481H150.068C150.293 18.3366 150.773 17.624 151.434 17.1222C152.095 16.6203 152.901 16.3575 153.722 16.3747C154.548 16.3011 155.371 16.5458 156.03 17.0613C156.689 17.5767 157.136 18.3255 157.285 19.1614H157.467C157.726 18.3211 158.25 17.5922 158.956 17.0882C159.661 16.5842 160.509 16.3334 161.368 16.3747C161.939 16.3523 162.507 16.4539 163.037 16.6728C163.567 16.8915 164.046 17.2226 164.442 17.6442C164.838 18.0659 165.144 18.5687 165.337 19.1197C165.532 19.6707 165.61 20.2574 165.568 20.8415V29.7619H161.368V21.9349C161.368 20.6015 160.756 19.8548 159.574 19.8548C159.31 19.8503 159.05 19.9042 158.81 20.0127C158.571 20.121 158.356 20.2814 158.181 20.4828C158.007 20.6841 157.878 20.9217 157.801 21.1793C157.725 21.4369 157.705 21.7082 157.74 21.9749V29.7619H153.761V21.8949C153.761 20.5615 153.124 19.8548 151.98 19.8548C151.715 19.8527 151.453 19.9087 151.21 20.0192C150.968 20.1296 150.751 20.2919 150.576 20.4953C150.399 20.6987 150.267 20.9382 150.189 21.198C150.11 21.4578 150.088 21.7318 150.121 22.0016V29.7619H145.947L145.921 16.6147Z" fill="#1D2130"/>
<path d="M39.3566 13.5079C39.3567 10.854 38.5753 8.26196 37.1146 6.07127C35.6539 3.88056 33.5821 2.19336 31.1706 1.23063C28.759 0.267914 26.1201 0.0745687 23.5997 0.675921C21.0791 1.27728 18.7946 2.64529 17.0449 4.60077H0.818359V39.7225H35.0789V23.3084C36.4236 22.0749 37.4996 20.5646 38.2367 18.8759C38.9737 17.1871 39.3554 15.3581 39.3566 13.5079ZM32.7646 13.5079C32.7671 14.7796 32.4017 16.0235 31.7146 17.0822C31.0276 18.1408 30.0497 18.9666 28.9048 19.4551C27.7599 19.9437 26.4994 20.0728 25.2828 19.8263C24.0663 19.5799 22.9485 18.9688 22.0707 18.0705C21.1929 17.1722 20.5947 16.027 20.3519 14.78C20.109 13.5329 20.2324 12.24 20.7063 11.0648C21.1803 9.88965 21.9835 8.8851 23.0144 8.1783C24.0453 7.47151 25.2574 7.09423 26.4975 7.09422C28.1574 7.09422 29.7494 7.76952 30.9244 8.97193C32.0993 10.1743 32.7611 11.8057 32.7646 13.5079ZM28.4868 32.9622H7.41043V11.3611H13.8335C13.7094 12.0698 13.6441 12.7879 13.6384 13.5079C13.6419 17.0043 14.9978 20.3565 17.4086 22.8288C19.8194 25.3011 23.0881 26.6917 26.4975 26.6952C27.164 26.6916 27.8292 26.6337 28.4868 26.5219V32.9622Z" fill="#1D2130"/>
</g>
<defs>
<clipPath id="clip0_968_585">
<rect width="165.987" height="40" fill="white" transform="translate(0.0126953)"/>
</clipPath>
</defs>
</svg>

<svg width="166" height="40" fill="none" xmlns="http://www.w3.org/2000/svg"><g clip-path="url(#a)" fill="#1D2130"><path d="M47.612 12.374h4.174V29.71h-4.174V12.374Zm5.838 10.814c0-4.293 2.6-6.867 6.501-6.867 3.9 0 6.501 2.574 6.501 6.867 0 4.294-2.51 6.894-6.5 6.894-3.992 0-6.502-2.507-6.502-6.894Zm8.868 0c0-2.36-.898-3.746-2.328-3.746-1.43 0-2.314 1.333-2.314 3.746 0 2.414.884 3.734 2.314 3.734 1.43 0 2.354-1.32 2.354-3.72l-.026-.014Zm5.799 7.414h4.03c.184.445.504.816.913 1.057.408.24.882.338 1.35.276 1.599 0 2.431-.88 2.431-2.186v-2.4h.013a4.057 4.057 0 0 1-1.598 1.786c-.696.417-1.499.607-2.303.547-3.055 0-5.084-2.387-5.084-6.494 0-4.107 1.938-6.667 5.201-6.667a3.915 3.915 0 0 1 2.341.624 4.07 4.07 0 0 1 1.56 1.896h-.117v-2.413h4.135v12.987c0 3.134-2.705 5.094-6.684 5.094-3.614-.014-5.928-1.707-6.162-4.094l-.026-.013Zm8.737-7.414c0-2.093-.936-3.413-2.418-3.413-1.483 0-2.393 1.333-2.393 3.413s.897 3.307 2.393 3.307c1.495 0 2.418-1.133 2.418-3.307Zm5.786 0c0-4.293 2.6-6.867 6.5-6.867 3.902 0 6.502 2.574 6.502 6.867 0 4.294-2.522 6.894-6.501 6.894-3.979 0-6.475-2.507-6.475-6.894h-.026Zm8.867 0c0-2.36-.91-3.746-2.327-3.746-1.417 0-2.314 1.333-2.314 3.746 0 2.414.884 3.734 2.314 3.734 1.43 0 2.353-1.32 2.353-3.72l-.026-.014Zm5.825-9.72a2.23 2.23 0 0 1 .315-1.24 2.15 2.15 0 0 1 .937-.846c.387-.18.819-.236 1.238-.163.419.074.808.274 1.115.576.308.302.52.69.61 1.117.09.427.053.871-.105 1.276a2.172 2.172 0 0 1-.784.997 2.094 2.094 0 0 1-1.193.376 2.01 2.01 0 0 1-1.477-.588 2.108 2.108 0 0 1-.461-.681 2.152 2.152 0 0 1-.169-.81l-.026-.014Zm0 3.147h4.226v13.147h-4.16l-.066-13.147Zm19.425 6.573c0 4.28-1.872 6.76-5.057 6.76a3.916 3.916 0 0 1-2.325-.59 4.064 4.064 0 0 1-1.576-1.85h-.078v6.48h-4.174V16.656h4.148V19h.078a4.094 4.094 0 0 1 1.56-1.898 3.94 3.94 0 0 1 2.34-.635c3.277-.027 5.162 2.44 5.162 6.734l-.078-.014Zm-4.251 0c0-2.08-.95-3.426-2.419-3.426s-2.392 1.333-2.405 3.426c-.013 2.094.936 3.414 2.405 3.414 1.469 0 2.497-1.24 2.497-3.4l-.078-.014Zm11.376-6.88c3.498 0 5.67 1.693 5.695 4.413h-3.809c0-.946-.767-1.533-1.911-1.533-1.145 0-1.691.454-1.691 1.134 0 .68.482.893 1.444 1.093l2.678.56c2.601.56 3.641 1.627 3.641 3.613 0 2.667-2.406 4.48-5.981 4.48-3.576 0-5.904-1.76-6.072-4.44h4.043c.117.974.871 1.547 2.094 1.547 1.222 0 1.794-.4 1.794-1.107 0-.706-.39-.826-1.392-1.04l-2.418-.52c-2.509-.546-3.823-1.893-3.823-3.906.079-2.614 2.263-4.28 5.786-4.28l-.078-.014Zm20.023 13.44h-4.043v-2.466h-.078a3.76 3.76 0 0 1-1.397 2.039 3.601 3.601 0 0 1-2.334.694 4.36 4.36 0 0 1-1.836-.339 4.453 4.453 0 0 1-1.54-1.08 4.585 4.585 0 0 1-.975-1.63 4.662 4.662 0 0 1-.239-1.898v-8.44h4.174v7.52c0 1.547.793 2.387 2.093 2.387.305-.002.606-.072.882-.204.277-.131.523-.322.722-.56a2.233 2.233 0 0 0 .489-1.743v-7.4h4.161l-.079 13.12Zm2.016-13.133h4.057v2.533h.09a3.822 3.822 0 0 1 1.366-2.026 3.658 3.658 0 0 1 2.288-.747 3.272 3.272 0 0 1 2.308.686 3.426 3.426 0 0 1 1.255 2.1h.182c.259-.84.783-1.569 1.489-2.073a3.828 3.828 0 0 1 2.412-.713 3.96 3.96 0 0 1 1.669.298c.53.219 1.009.55 1.405.971a4.249 4.249 0 0 1 1.126 3.197v8.92h-4.2v-7.826c0-1.333-.612-2.08-1.794-2.08a1.778 1.778 0 0 0-.764.158 1.842 1.842 0 0 0-1.009 1.166 1.927 1.927 0 0 0-.061.796v7.787h-3.979v-7.867c0-1.334-.637-2.04-1.781-2.04a1.823 1.823 0 0 0-1.404.64 1.904 1.904 0 0 0-.387.703 1.95 1.95 0 0 0-.068.804v7.76h-4.174l-.026-13.147ZM39.357 13.508c0-2.654-.782-5.246-2.242-7.437a12.907 12.907 0 0 0-5.944-4.84A12.546 12.546 0 0 0 23.6.676 12.782 12.782 0 0 0 17.045 4.6H.818v35.121h34.26V23.308a13.15 13.15 0 0 0 3.159-4.432 13.448 13.448 0 0 0 1.12-5.368Zm-6.592 0a6.545 6.545 0 0 1-1.05 3.574 6.305 6.305 0 0 1-2.81 2.373 6.121 6.121 0 0 1-3.622.371 6.22 6.22 0 0 1-3.212-1.756 6.478 6.478 0 0 1-1.72-3.29 6.58 6.58 0 0 1 .355-3.715 6.395 6.395 0 0 1 2.308-2.887 6.157 6.157 0 0 1 3.483-1.084c1.66 0 3.252.676 4.427 1.878a6.511 6.511 0 0 1 1.84 4.536Zm-4.278 19.454H7.41v-21.6h6.424c-.125.708-.19 1.426-.196 2.146.004 3.496 1.36 6.849 3.77 9.32 2.411 2.473 5.68 3.864 9.09 3.867a12.263 12.263 0 0 0 1.989-.173v6.44Z"/></g><defs><clipPath id="a"><path fill="#fff" transform="translate(.013)" d="M0 0h165.987v40H0z"/></clipPath></defs></svg>
